img/memberpress-email.svg

<svg clip-rule="evenodd" fill-rule="evenodd" stroke-linejoin="round" stroke-miterlimit="2" viewBox="0 0 512 512" xmlns="http://www.w3.org/2000/svg"><path d="m502.3 190.8c3.9-3.1 9.7-.2 9.7 4.7v204.5c0 26.5-21.5 48-48 48h-416c-26.5 0-48-21.5-48-48v-204.4c0-5 5.7-7.8 9.7-4.7 22.4 17.4 52.1 39.5 154.1 113.6 21.1 15.4 56.7 47.8 92.2 47.6 35.7.3 72-32.8 92.3-47.6 102-74.1 131.6-96.3 154-113.7zm-246.3 129.2c23.2.4 56.6-29.2 73.4-41.4 132.7-96.3 142.8-104.7 173.4-128.7 5.8-4.5 9.2-11.5 9.2-18.9v-19c0-26.5-21.5-48-48-48h-416c-26.5 0-48 21.5-48 48v19c0 7.4 3.4 14.3 9.2 18.9 30.6 23.9 40.7 32.4 173.4 128.7 16.8 12.2 50.2 41.8 73.4 41.4z" fill="#fff" fill-rule="nonzero"/></svg>

<?xml version="1.0" encoding="UTF-8" standalone="no"?>
<!DOCTYPE svg PUBLIC "-//W3C//DTD SVG 1.1//EN" "http://www.w3.org/Graphics/SVG/1.1/DTD/svg11.dtd">
<svg width="100%" height="100%" viewBox="0 0 512 512" version="1.1" xmlns="http://www.w3.org/2000/svg" xmlns:xlink="http://www.w3.org/1999/xlink" xml:space="preserve" xmlns:serif="http://www.serif.com/" style="fill-rule:evenodd;clip-rule:evenodd;stroke-linejoin:round;stroke-miterlimit:2;">
    <path d="M502.3,190.8C506.2,187.7 512,190.6 512,195.5L512,400C512,426.5 490.5,448 464,448L48,448C21.5,448 0,426.5 0,400L0,195.6C0,190.6 5.7,187.8 9.7,190.9C32.1,208.3 61.8,230.4 163.8,304.5C184.9,319.9 220.5,352.3 256,352.1C291.7,352.4 328,319.3 348.3,304.5C450.3,230.4 479.9,208.2 502.3,190.8ZM256,320C279.2,320.4 312.6,290.8 329.4,278.6C462.1,182.3 472.2,173.9 502.8,149.9C508.6,145.4 512,138.4 512,131L512,112C512,85.5 490.5,64 464,64L48,64C21.5,64 0,85.5 0,112L0,131C0,138.4 3.4,145.3 9.2,149.9C39.8,173.8 49.9,182.3 182.6,278.6C199.4,290.8 232.8,320.4 256,320Z" style="fill:white;fill-rule:nonzero;"/>
</svg>
